X:0226
T:Shammie Breeches.
M:C
L:1/8
Q:1/2=100
I: || ::
Z:Jack Campin * www.campin.me.uk * 2009
K:G
c|Bddg e(cc)d|B(GG)B A(FF)A|Bddg eccd       |BGAF G/G/G G||
d|BGdG BGdG  |AFcF   AFcF  |BGdG B/A/B/c/ dg|AFcA G/G/G G|]
<end>
<start>
